humanity-icon-theme/Humanity/actions/16/help-contents.svg

<?xml version="1.0" encoding="UTF-8" standalone="no"?>
<!-- Created with Inkscape (http://www.inkscape.org/) -->

<svg
   xmlns:dc="http://purl.org/dc/elements/1.1/"
   xmlns:cc="http://creativecommons.org/ns#"
   xmlns:rdf="http://www.w3.org/1999/02/22-rdf-syntax-ns#"
   xmlns:svg="http://www.w3.org/2000/svg"
   xmlns="http://www.w3.org/2000/svg"
   xmlns:xlink="http://www.w3.org/1999/xlink"
   xmlns:sodipodi="http://sodipodi.sourceforge.net/DTD/sodipodi-0.dtd"
   xmlns:inkscape="http://www.inkscape.org/namespaces/inkscape"
   width="16px"
   height="16px"
   id="svg3935"
   version="1.1"
   inkscape:version="0.48.0 r9654"
   sodipodi:docname="help-contents.svg">
  <defs
     id="defs3937">
    <linearGradient
       inkscape:collect="always"
       xlink:href="#linearGradient3707-319-631-407-324-3-8"
       id="linearGradient3892"
       x1="7.4296298"
       y1="13.162963"
       x2="7.4296298"
       y2="0.12066602"
       gradientUnits="userSpaceOnUse" />
    <linearGradient
       id="linearGradient3707-319-631-407-324-3-8">
      <stop
         id="stop3760-7-3"
         style="stop-color:#185f9a;stop-opacity:1;"
         offset="0" />
      <stop
         id="stop3762-8-4"
         style="stop-color:#599ec9;stop-opacity:1;"
         offset="1" />
    </linearGradient>
    <linearGradient
       inkscape:collect="always"
       xlink:href="#linearGradient4011"
       id="linearGradient3071"
       gradientUnits="userSpaceOnUse"
       gradientTransform="matrix(0.35135136,0,0,0.35135136,-17.203671,-0.90930013)"
       x1="71.204407"
       y1="6.2375584"
       x2="71.204407"
       y2="44.340794" />
    <linearGradient
       id="linearGradient4011">
      <stop
         id="stop4013"
         style="stop-color:#ffffff;stop-opacity:1;"
         offset="0" />
      <stop
         offset="0.507761"
         style="stop-color:#ffffff;stop-opacity:0.23529412;"
         id="stop4015" />
      <stop
         id="stop4017"
         style="stop-color:#ffffff;stop-opacity:0.15686275;"
         offset="0.83456558" />
      <stop
         id="stop4019"
         style="stop-color:#ffffff;stop-opacity:0.39215687;"
         offset="1" />
    </linearGradient>
    <linearGradient
       id="linearGradient2867-449-88-871-390-598-476-591-434-148-57-177-3-8">
      <stop
         id="stop3750-8-9"
         style="stop-color:#90dbec;stop-opacity:1;"
         offset="0" />
      <stop
         id="stop3752-3-2"
         style="stop-color:#55c1ec;stop-opacity:1;"
         offset="0.26238" />
      <stop
         id="stop3754-7-2"
         style="stop-color:#3689e6;stop-opacity:1;"
         offset="0.704952" />
      <stop
         id="stop3756-9-3"
         style="stop-color:#2b63a0;stop-opacity:1;"
         offset="1" />
    </linearGradient>
    <radialGradient
       r="19.99999"
       fy="8.4497671"
       fx="5.7800279"
       cy="8.4497671"
       cx="5.7800279"
       gradientTransform="matrix(0,0.89892574,-0.95095622,-1.6561642e-8,16.035401,-6.0146846)"
       gradientUnits="userSpaceOnUse"
       id="radialGradient3931"
       xlink:href="#linearGradient2867-449-88-871-390-598-476-591-434-148-57-177-3-8"
       inkscape:collect="always" />
    <linearGradient
       y2="3.8990016"
       x2="24"
       y1="44"
       x1="24"
       gradientTransform="matrix(0.38465107,0,0,0.38465106,-1.231625,-1.2316257)"
       gradientUnits="userSpaceOnUse"
       id="linearGradient3933"
       xlink:href="#linearGradient3707-319-631-407-324-3-8"
       inkscape:collect="always" />
  </defs>
  <sodipodi:namedview
     id="base"
     pagecolor="#ffffff"
     bordercolor="#666666"
     borderopacity="1.0"
     inkscape:pageopacity="0.0"
     inkscape:pageshadow="2"
     inkscape:zoom="11.098901"
     inkscape:cx="8"
     inkscape:cy="8"
     inkscape:current-layer="layer1"
     showgrid="true"
     inkscape:grid-bbox="true"
     inkscape:document-units="px"
     inkscape:window-width="1280"
     inkscape:window-height="753"
     inkscape:window-x="0"
     inkscape:window-y="24"
     inkscape:window-maximized="1" />
  <metadata
     id="metadata3940">
    <rdf:RDF>
      <cc:Work
         rdf:about="">
        <dc:format>image/svg+xml</dc:format>
        <dc:type
           rdf:resource="http://purl.org/dc/dcmitype/StillImage" />
        <dc:title />
      </cc:Work>
    </rdf:RDF>
  </metadata>
  <g
     id="layer1"
     inkscape:label="Layer 1"
     inkscape:groupmode="layer">
    <path
       inkscape:connector-curvature="0"
       style="color:#000000;fill:url(#radialGradient3931);fill-opacity:1;fill-rule:nonzero;stroke:url(#linearGradient3933);stroke-width:0.99999994000000003;stroke-linecap:round;stroke-linejoin:round;stroke-miterlimit:4;stroke-opacity:1;stroke-dasharray:none;stroke-dashoffset:0;marker:none;visibility:visible;display:inline;overflow:visible;enable-background:accumulate"
       id="path2555-7"
       d="m 8.000001,0.49999997 c -4.138241,0 -7.50000103,3.36175853 -7.50000103,7.49999993 C 0.49999997,12.138242 3.86176,15.500001 8.000001,15.5 12.13824,15.5 15.500004,12.138242 15.5,7.9999999 15.5,3.8617585 12.13824,0.49999997 8.000001,0.49999997 z" />
    <path
       inkscape:connector-curvature="0"
       style="opacity:0.5;color:#000000;fill:none;stroke:url(#linearGradient3071);stroke-width:0.99999994;stroke-linecap:round;stroke-linejoin:round;stroke-miterlimit:4;stroke-opacity:1;stroke-dasharray:none;stroke-dashoffset:0;marker:none;visibility:visible;display:inline;overflow:visible;enable-background:accumulate"
       id="path8655-6"
       d="M 14.5,7.999769 C 14.5,11.589737 11.589636,14.5 8.0000824,14.5 4.4101993,14.5 1.5,11.589703 1.5,7.999769 1.5,4.4099697 4.4101993,1.5000003 8.0000824,1.5000003 11.589636,1.5000003 14.5,4.4099697 14.5,7.999769 l 0,0 z" />
    <path
       inkscape:connector-curvature="0"
       style="font-size:72px;font-style:normal;font-weight:bold;fill:url(#linearGradient3892);fill-opacity:1;stroke:none;font-family:Standard Symbols L"
       id="path3298-7"
       d="M 8.3414142,8.9859802 C 8.3166346,8.0787645 8.5148047,7.1980506 9.3504899,6.5742083 10.233188,5.8686816 11.083296,4.9859726 10.993458,3.9454576 10.973841,2.9419755 9.8338672,2.1556379 8.605627,2.0425763 7.2240574,1.8462734 5.5523673,2.3317052 5.0894119,3.4383231 4.8546122,3.976544 5.0723491,4.9421753 5.8603356,4.9421753 c 0.4608941,0 0.6725855,-0.3053592 0.7073635,-0.5846914 0.026312,-0.211351 -0.058288,-0.4000864 -0.1082498,-0.5746636 -0.056929,-0.19892 0.1860948,-0.5844493 0.4507816,-0.7415272 0.221175,-0.13126 0.4525815,-0.1752734 0.4866925,-0.183681 0.794304,-0.1957868 1.5861109,0.236679 1.9164669,0.763044 0.330356,0.5263639 -0.033266,1.3247554 -0.556071,2.1011604 -0.5228054,0.776406 -1.0838678,1.6582439 -1.0816261,2.5949 0,0.356586 -0.030978,0.4777262 -0.00897,0.6219919 0.017586,0.1152639 0.3897098,0.1013339 0.6746888,0.047272 z M 7.9789187,10.207044 c -0.7594802,-0.04229 -1.2851464,0.840767 -0.8288879,1.403394 0.40746,0.621196 1.5498839,0.467848 1.7456953,-0.235593 0.2035731,-0.547016 -0.2863285,-1.176932 -0.9168074,-1.167802 l 0,10e-7 z" />
    <path
       inkscape:connector-curvature="0"
       style="font-size:72px;font-style:normal;font-weight:bold;fill:#ffffff;fill-opacity:1;stroke:none;font-family:Standard Symbols L"
       id="path3298"
       d="M 8.3414142,9.9859797 C 8.3166346,9.078764 8.5148047,8.1980501 9.3504899,7.5742078 10.233188,6.8686811 11.083296,5.9859721 10.993458,4.9454571 10.973841,3.941975 9.8338672,3.1556374 8.605627,3.0425758 7.2240574,2.8462729 5.5523673,3.3317047 5.0894119,4.4383226 4.8546122,4.9765435 5.0723491,5.9421748 5.8603356,5.9421748 c 0.4608941,0 0.6725855,-0.3053592 0.7073635,-0.5846914 0.026312,-0.211351 -0.058288,-0.4000864 -0.1082498,-0.5746636 -0.056929,-0.19892 0.1860948,-0.5844493 0.4507816,-0.7415272 0.221175,-0.13126 0.4525815,-0.1752734 0.4866925,-0.183681 0.794304,-0.1957868 1.5861109,0.236679 1.9164669,0.763044 0.330356,0.5263639 -0.033266,1.3247554 -0.556071,2.1011604 -0.5228054,0.776406 -1.0838678,1.6582439 -1.0816261,2.5949 0,0.356586 -0.030978,0.4777262 -0.00897,0.6219919 0.017586,0.1152641 0.3897098,0.1013341 0.6746888,0.047272 z M 7.9789187,11.207044 c -0.7594802,-0.04229 -1.2851464,0.840767 -0.8288879,1.403394 0.40746,0.621196 1.5498839,0.467848 1.7456953,-0.235593 0.2035731,-0.547016 -0.2863285,-1.176932 -0.9168074,-1.167802 l 0,10e-7 z" />
  </g>
</svg>

<?xml version="1.0" encoding="UTF-8" standalone="no"?>
<!-- Created with Inkscape (http://www.inkscape.org/) -->
<svg id="svg2469" xmlns="http://www.w3.org/2000/svg" height="16" width="16" version="1.0" xmlns:xlink="http://www.w3.org/1999/xlink">
 <defs id="defs2471">
  <linearGradient id="linearGradient2406" y2="5.4676" gradientUnits="userSpaceOnUse" x2="63.397" gradientTransform="matrix(.74324 0 0 .74322 -38.23 10.609)" y1="-12.489" x1="63.397">
   <stop id="stop4875" style="stop-color:#fff" offset="0"/>
   <stop id="stop4877" style="stop-color:#fff;stop-opacity:0" offset="1"/>
  </linearGradient>
  <linearGradient id="linearGradient2411" y2="3.0816" gradientUnits="userSpaceOnUse" x2="18.379" gradientTransform="matrix(.36857 0 0 .36857 -.84577 -.84577)" y1="44.98" x1="18.379">
   <stop id="stop2788" style="stop-color:#1f4b6a" offset="0"/>
   <stop id="stop2790" style="stop-color:#4083c2" offset="1"/>
  </linearGradient>
  <radialGradient id="radialGradient2409" gradientUnits="userSpaceOnUse" cy="3.99" cx="23.896" gradientTransform="matrix(0 .87966 -1.1611 0 12.633 -21.084)" r="20.397">
   <stop id="stop2778" style="stop-color:#8badea" offset="0"/>
   <stop id="stop2780" style="stop-color:#6396cd" offset=".26238"/>
   <stop id="stop2782" style="stop-color:#3b7caf" offset=".66094"/>
   <stop id="stop2784" style="stop-color:#194c70" offset="1"/>
  </radialGradient>
 </defs>
 <g id="layer1">
  <g id="g2493">
   <path id="path2555" style="stroke-linejoin:round;stroke:url(#linearGradient2411);stroke-linecap:round;stroke-width:1.0037;fill:url(#radialGradient2409)" d="m8 0.50183c-4.1372 0-7.4982 3.361-7.4982 7.4982 0.00003 4.137 3.361 7.498 7.4982 7.498 4.137 0 7.498-3.361 7.498-7.498 0-4.1372-3.361-7.4982-7.498-7.4982z"/>
   <path id="path2463" style="opacity:.4;stroke:url(#linearGradient2406);fill:none" d="m14.5 7.9998c0 3.5902-2.91 6.5002-6.4999 6.5002s-6.5001-2.91-6.5001-6.5002c0-3.5898 2.9102-6.4998 6.5001-6.4998s6.4999 2.91 6.4999 6.4998z"/>
  </g>
  <path id="path3298" style="fill:#fff" d="m8.3414 9.986c-0.0248-0.9072 0.1734-1.7879 1.0091-2.4118 0.8825-0.7055 1.7325-1.5882 1.6425-2.6287-0.019-1.0035-1.1591-1.7899-2.3874-1.9029-1.3815-0.1963-3.0532 0.2891-3.5162 1.3957-0.2348 0.5382-0.0171 1.5039 0.7709 1.5039 0.4609 0 0.6726-0.3054 0.7074-0.5847 0.0263-0.2114-0.0583-0.4001-0.1083-0.5747-0.0569-0.1989 0.1861-0.5844 0.4508-0.7415 0.2212-0.1313 0.4526-0.1753 0.4867-0.1837 0.7943-0.1958 1.5861 0.2367 1.9165 0.7631 0.3303 0.5263-0.0333 1.3247-0.5561 2.1011s-1.0838 1.6583-1.0816 2.5949c0 0.3566-0.031 0.4777-0.009 0.622 0.0176 0.1153 0.3897 0.1013 0.6747 0.0473zm-0.3625 1.221c-0.7595-0.042-1.2851 0.841-0.8289 1.403 0.4075 0.622 1.5499 0.468 1.7457-0.235 0.2036-0.547-0.2863-1.177-0.9168-1.168z"/>
 </g>
</svg>
